pldoc/static/images/icons/arrow-circle-down.svg

<?xml version="1.0" encoding="utf-8"?>
<!-- Generated by IcoMoon.io -->
<!DOCTYPE svg PUBLIC "-//W3C//DTD SVG 1.1//EN" "http://www.w3.org/Graphics/SVG/1.1/DTD/svg11.dtd">
<svg version="1.1" xmlns="http://www.w3.org/2000/svg" xmlns:xlink="http://www.w3.org/1999/xlink" width="14" height="14" viewBox="0 0 14 14">
<path fill="#444444" d="M10.031 7.008q0-0.211-0.141-0.352l-0.711-0.711q-0.141-0.141-0.352-0.141t-0.352 0.141l-1.477 1.477v-3.922q0-0.203-0.148-0.352t-0.352-0.148h-1q-0.203 0-0.352 0.148t-0.148 0.352v3.922l-1.477-1.477q-0.148-0.148-0.352-0.148t-0.352 0.148l-0.711 0.711q-0.141 0.141-0.141 0.352t0.141 0.352l3.539 3.539q0.141 0.141 0.352 0.141t0.352-0.141l3.539-3.539q0.141-0.141 0.141-0.352zM12 7q0 1.633-0.805 3.012t-2.184 2.184-3.012 0.805-3.012-0.805-2.184-2.184-0.805-3.012 0.805-3.012 2.184-2.184 3.012-0.805 3.012 0.805 2.184 2.184 0.805 3.012z"></path>
</svg>

<svg xmlns="http://www.w3.org/2000/svg" width="14" height="14" viewBox="0 0 14 14"><path fill="#444" d="M10.03 7.008q0-.21-.14-.352l-.71-.71q-.142-.142-.353-.142t-.352.14L6.998 7.423V3.5q0-.203-.148-.352T6.498 3h-1q-.203 0-.352.148t-.148.352v3.922L3.52 5.945q-.147-.148-.35-.148t-.353.148l-.71.71q-.142.142-.142.353t.14.352l3.54 3.54q.14.14.352.14t.352-.14l3.538-3.54q.14-.14.14-.352zM12 7q0 1.633-.805 3.012T9.01 12.196 6 13t-3.013-.804-2.184-2.184T-.002 7t.805-3.012 2.184-2.184T6 1t3.01.804 2.185 2.184T12 7z"/></svg>
